!!!OTL: Der Augenblick.
!!!OTL-incipit: UND SO FINDEN WIR UNS WIEDER
!!!COM: Zelter
!!!ARE: Europa, Mitteleuropa, Deutschland
!!!SCT: F0800
!!!TXL: @@DE
!!!YEM: Copyright 1995, estate of Helmut Schaffrath.
**kern	**text
*ICvox	*
*clefG2	*
*M6/8	*
*k[b-]	*
*F:	*
!LO:TX:a:t=Heiter und nicht geſchwind.	!
!LO:TX:a:t=P:only the highest voice encoded:problem	!
{4cc	1._Und
8ff	ſo
=1	=1
4cc	fin-
8a	-den
8.b-L	wir
16aJ	.
8g	uns
=2	=2
4a	wieder
8f}	.
{8cc/L	in
8ffJ	.
8aa	den
=3	=3
8ggL	hei-
8eeJ	.
8cc	-tern
8ff/L	bun-
8ddJ	.
8bn/	-ten
=4	=4
4cc/	Reih'n;
8r}	.
{4cc	und
8ff	es
=5	=5
4cc	ſoll
8a	der
8.b-/L	Kranʒ
16aJ	.
8g	der
=6	=6
4a	Lie-
8f}	-der
{4dd/	friſch
8dd	von
=7	=7
8.cc/L	uns
16b-J	.
8a	ge-
8.b-L	-floch-
16aJ	.
8g	-ten
=8	=8
4f	ſein.
8r}	.
==	==
!!!AGN: Geselligkeits -, Moral - Lied
!!!ONB: ESAC (Essen Associative Code) Database: FINK
!!!AMT: compound duple
!!!AIN: vox
!!!EED: Helmut Schaffrath
!!!EEV: 1.0
!!Text: Fr. Schiller
!!!GTL: Liedertafel- und Gesellschaftslieder
!!!source: Musikalischer Hausschatz der Deutschen. Eine Sammlung von über 1000 Liedern und Gesängen mit Singstimmen und Klavierbegleitung. Leipzig, Litterarisches Verlags-Haus.
!!!page: 553
!!!URL-scan: https://www.digitale-sammlungen.de/en/view/bsb11144622?page=503
!!!ENC: Anna Maria Matuszewska
!!!EEV: 2024/08/06
*-	*-